public/images/it-wasnt-made-for-that/figma-b-0.svg

<svg fill="none" height="441" viewBox="0 0 1012 441" width="1012" xmlns="http://www.w3.org/2000/svg"><path d="m0 0h1012v441h-1012z" fill="#fff"/><path d="m0 188h1012v253h-1012z" fill="#815cff" fill-opacity=".05"/><circle cx="306" cy="73" fill="#fff" r="58" stroke="#00a2ff" stroke-width="4"/><path d="m285.129 75.084v7.416h3.192v-16.584h-3.192v6.648h-5.904v-6.648h-3.168v16.584h3.168v-7.416zm12.141-5.64c-3.768 0-6 2.712-6 6.696 0 4.176 2.232 6.72 5.976 6.72s5.976-2.712 5.976-6.72c0-4.152-2.208-6.696-5.952-6.696zm0 2.328c1.776 0 2.712 1.344 2.712 4.368s-.936 4.392-2.736 4.392-2.736-1.344-2.736-4.392c0-3 .96-4.368 2.76-4.368zm22.296-2.328c-1.68 0-2.856.816-3.816 2.136-.48-1.344-1.584-2.136-3.072-2.136-1.608 0-2.76.744-3.672 2.016l-.24-1.656h-2.664v12.696h3.072v-8.832c.696-1.176 1.344-1.92 2.424-1.92.744 0 1.392.456 1.392 2.04v8.712h3.072v-8.832c.696-1.176 1.344-1.92 2.4-1.92.768 0 1.392.456 1.392 2.04v8.712h3.072v-9.192c0-2.4-1.344-3.864-3.36-3.864zm17.343 6.408c0-4.008-2.04-6.408-5.592-6.408-3.6 0-5.64 2.928-5.64 6.792 0 4.008 2.112 6.624 6.048 6.624 1.92 0 3.456-.696 4.704-1.704l-1.272-1.752c-1.104.768-2.04 1.128-3.168 1.128-1.68 0-2.904-.84-3.12-3.432h7.968c.024-.336.072-.84.072-1.248zm-3.048-.744h-4.992c.168-2.52 1.08-3.48 2.52-3.48 1.728 0 2.472 1.248 2.472 3.336z" fill="#00a2ff"/><circle cx="506" cy="73" fill="#fff" r="59" stroke="#000" stroke-width="2"/><path d="m490.981 82.5v-16.584h-2.88v7.776c0 2.352.288 4.752.432 5.664l-5.784-13.44h-4.008v16.584h2.88v-6.768c0-3.072-.264-5.184-.432-6.648l5.688 13.416zm14.205-6.648c0-4.008-2.04-6.408-5.592-6.408-3.6 0-5.64 2.928-5.64 6.792 0 4.008 2.112 6.624 6.048 6.624 1.92 0 3.456-.696 4.704-1.704l-1.272-1.752c-1.104.768-2.04 1.128-3.168 1.128-1.68 0-2.904-.84-3.12-3.432h7.968c.024-.336.072-.84.072-1.248zm-3.048-.744h-4.992c.168-2.52 1.08-3.48 2.52-3.48 1.728 0 2.472 1.248 2.472 3.336zm18.618 7.392 2.76-12.696h-2.952l-1.896 10.44-2.016-10.44h-3.144l-2.208 10.44-1.776-10.44h-3.072l2.808 12.696h3.768l1.968-9.96 1.92 9.96zm8.889-13.056c-2.952 0-4.896 1.584-4.896 3.696 0 1.872 1.152 3.12 3.768 3.84 2.376.672 2.88 1.008 2.88 2.112 0 .888-.888 1.488-2.28 1.488-1.272 0-2.448-.504-3.408-1.272l-1.56 1.752c1.176 1.056 2.88 1.8 5.064 1.8 2.904 0 5.352-1.392 5.352-4.032 0-2.256-1.464-3.312-4.056-4.008-2.16-.6-2.664-.984-2.664-1.824 0-.768.696-1.272 1.992-1.272 1.056 0 2.064.36 3.12 1.08l1.2-1.848c-1.2-.936-2.688-1.512-4.512-1.512z" fill="#000"/><circle cx="706" cy="73" fill="#fff" r="59" stroke="#000" stroke-width="2"/><path d="m676.992 65.916h-4.896v16.584h3.168v-5.784h1.944c3.744 0 6.504-1.704 6.504-5.52 0-3.576-2.544-5.28-6.72-5.28zm-.024 8.424h-1.704v-6.096h1.704c2.16 0 3.432.864 3.432 2.952 0 2.424-1.32 3.144-3.432 3.144zm15.476-4.872c-1.488 0-2.712 1.008-3.312 2.832l-.288-2.496h-2.664v12.696h3.072v-6.768c.48-2.136 1.272-3.264 2.808-3.264.432 0 .744.048 1.128.144l.528-2.976c-.408-.12-.816-.168-1.272-.168zm8.131-.024c-3.768 0-6 2.712-6 6.696 0 4.176 2.232 6.72 5.976 6.72s5.976-2.712 5.976-6.72c0-4.152-2.208-6.696-5.952-6.696zm0 2.328c1.776 0 2.712 1.344 2.712 4.368s-.936 4.392-2.736 4.392-2.736-1.344-2.736-4.392c0-3 .96-4.368 2.76-4.368zm14.088-7.392c-3.456 0-4.896 1.752-4.896 4.08v1.344h-1.968v2.208h1.968v10.488h3.072v-10.488h4.008v10.488h3.072v-12.696h-7.08v-1.296c0-1.2.456-1.776 2.112-1.776.984 0 1.896.24 2.664.6l.936-2.04c-1.032-.504-2.28-.912-3.888-.912zm11.899 15.024v-15.024l-3.072.336v14.904c0 2.112 1.08 3.24 2.976 3.24.792 0 1.56-.168 2.184-.432l-.648-2.16c-.216.072-.48.12-.72.12-.504 0-.72-.288-.72-.984zm14.307-3.552c0-4.008-2.04-6.408-5.592-6.408-3.6 0-5.64 2.928-5.64 6.792 0 4.008 2.112 6.624 6.048 6.624 1.92 0 3.456-.696 4.704-1.704l-1.272-1.752c-1.104.768-2.04 1.128-3.168 1.128-1.68 0-2.904-.84-3.12-3.432h7.968c.024-.336.072-.84.072-1.248zm-3.048-.744h-4.992c.168-2.52 1.08-3.48 2.52-3.48 1.728 0 2.472 1.248 2.472 3.336z" fill="#000"/><circle cx="306" cy="305" fill="#fff" r="59" stroke="#000" stroke-width="2"/><path d="m285.129 307.084v7.416h3.192v-16.584h-3.192v6.648h-5.904v-6.648h-3.168v16.584h3.168v-7.416zm12.141-5.64c-3.768 0-6 2.712-6 6.696 0 4.176 2.232 6.72 5.976 6.72s5.976-2.712 5.976-6.72c0-4.152-2.208-6.696-5.952-6.696zm0 2.328c1.776 0 2.712 1.344 2.712 4.368s-.936 4.392-2.736 4.392-2.736-1.344-2.736-4.392c0-3 .96-4.368 2.76-4.368zm22.296-2.328c-1.68 0-2.856.816-3.816 2.136-.48-1.344-1.584-2.136-3.072-2.136-1.608 0-2.76.744-3.672 2.016l-.24-1.656h-2.664v12.696h3.072v-8.832c.696-1.176 1.344-1.92 2.424-1.92.744 0 1.392.456 1.392 2.04v8.712h3.072v-8.832c.696-1.176 1.344-1.92 2.4-1.92.768 0 1.392.456 1.392 2.04v8.712h3.072v-9.192c0-2.4-1.344-3.864-3.36-3.864zm17.343 6.408c0-4.008-2.04-6.408-5.592-6.408-3.6 0-5.64 2.928-5.64 6.792 0 4.008 2.112 6.624 6.048 6.624 1.92 0 3.456-.696 4.704-1.704l-1.272-1.752c-1.104.768-2.04 1.128-3.168 1.128-1.68 0-2.904-.84-3.12-3.432h7.968c.024-.336.072-.84.072-1.248zm-3.048-.744h-4.992c.168-2.52 1.08-3.48 2.52-3.48 1.728 0 2.472 1.248 2.472 3.336z" fill="#000"/><circle cx="506" cy="305" fill="#fff" r="59" stroke="#000" stroke-width="2"/><path d="m490.981 314.5v-16.584h-2.88v7.776c0 2.352.288 4.752.432 5.664l-5.784-13.44h-4.008v16.584h2.88v-6.768c0-3.072-.264-5.184-.432-6.648l5.688 13.416zm14.205-6.648c0-4.008-2.04-6.408-5.592-6.408-3.6 0-5.64 2.928-5.64 6.792 0 4.008 2.112 6.624 6.048 6.624 1.92 0 3.456-.696 4.704-1.704l-1.272-1.752c-1.104.768-2.04 1.128-3.168 1.128-1.68 0-2.904-.84-3.12-3.432h7.968c.024-.336.072-.84.072-1.248zm-3.048-.744h-4.992c.168-2.52 1.08-3.48 2.52-3.48 1.728 0 2.472 1.248 2.472 3.336zm18.618 7.392 2.76-12.696h-2.952l-1.896 10.44-2.016-10.44h-3.144l-2.208 10.44-1.776-10.44h-3.072l2.808 12.696h3.768l1.968-9.96 1.92 9.96zm8.889-13.056c-2.952 0-4.896 1.584-4.896 3.696 0 1.872 1.152 3.12 3.768 3.84 2.376.672 2.88 1.008 2.88 2.112 0 .888-.888 1.488-2.28 1.488-1.272 0-2.448-.504-3.408-1.272l-1.56 1.752c1.176 1.056 2.88 1.8 5.064 1.8 2.904 0 5.352-1.392 5.352-4.032 0-2.256-1.464-3.312-4.056-4.008-2.16-.6-2.664-.984-2.664-1.824 0-.768.696-1.272 1.992-1.272 1.056 0 2.064.36 3.12 1.08l1.2-1.848c-1.2-.936-2.688-1.512-4.512-1.512z" fill="#000"/><circle cx="706" cy="305" fill="#fff" r="59" stroke="#000" stroke-width="2"/><path d="m676.992 297.916h-4.896v16.584h3.168v-5.784h1.944c3.744 0 6.504-1.704 6.504-5.52 0-3.576-2.544-5.28-6.72-5.28zm-.024 8.424h-1.704v-6.096h1.704c2.16 0 3.432.864 3.432 2.952 0 2.424-1.32 3.144-3.432 3.144zm15.476-4.872c-1.488 0-2.712 1.008-3.312 2.832l-.288-2.496h-2.664v12.696h3.072v-6.768c.48-2.136 1.272-3.264 2.808-3.264.432 0 .744.048 1.128.144l.528-2.976c-.408-.12-.816-.168-1.272-.168zm8.131-.024c-3.768 0-6 2.712-6 6.696 0 4.176 2.232 6.72 5.976 6.72s5.976-2.712 5.976-6.72c0-4.152-2.208-6.696-5.952-6.696zm0 2.328c1.776 0 2.712 1.344 2.712 4.368s-.936 4.392-2.736 4.392-2.736-1.344-2.736-4.392c0-3 .96-4.368 2.76-4.368zm14.088-7.392c-3.456 0-4.896 1.752-4.896 4.08v1.344h-1.968v2.208h1.968v10.488h3.072v-10.488h4.008v10.488h3.072v-12.696h-7.08v-1.296c0-1.2.456-1.776 2.112-1.776.984 0 1.896.24 2.664.6l.936-2.04c-1.032-.504-2.28-.912-3.888-.912zm11.899 15.024v-15.024l-3.072.336v14.904c0 2.112 1.08 3.24 2.976 3.24.792 0 1.56-.168 2.184-.432l-.648-2.16c-.216.072-.48.12-.72.12-.504 0-.72-.288-.72-.984zm14.307-3.552c0-4.008-2.04-6.408-5.592-6.408-3.6 0-5.64 2.928-5.64 6.792 0 4.008 2.112 6.624 6.048 6.624 1.92 0 3.456-.696 4.704-1.704l-1.272-1.752c-1.104.768-2.04 1.128-3.168 1.128-1.68 0-2.904-.84-3.12-3.432h7.968c.024-.336.072-.84.072-1.248zm-3.048-.744h-4.992c.168-2.52 1.08-3.48 2.52-3.48 1.728 0 2.472 1.248 2.472 3.336z" fill="#000"/><path d="m63.024 298.416h-4.08v16.584h4.512c3.96 0 8.064-1.656 8.064-8.376 0-6.864-4.128-8.208-8.496-8.208zm-.912 2.376h1.464c2.448 0 4.608.84 4.608 5.832 0 4.896-2.04 6-4.512 6h-1.56zm21.4481 10.848v-5.328c0-2.808-1.488-4.368-4.872-4.368-1.44 0-3.048.312-4.608.912l.72 2.088c1.272-.432 2.496-.672 3.36-.672 1.632 0 2.376.552 2.376 2.208v.72h-1.584c-3.696 0-5.784 1.488-5.784 4.248 0 2.304 1.56 3.912 4.104 3.912 1.512 0 2.904-.552 3.792-1.896.504 1.224 1.416 1.728 2.808 1.848l.648-2.04c-.624-.24-.96-.6-.96-1.632zm-5.472 1.488c-1.176 0-1.8-.696-1.8-1.92 0-1.488.984-2.208 2.976-2.208h1.272v2.568c-.576 1.008-1.368 1.56-2.448 1.56zm15.4536-11.16c-1.488 0-2.712 1.008-3.312 2.832l-.288-2.496h-2.664v12.696h3.072v-6.768c.48-2.136 1.272-3.264 2.808-3.264.432 0 .744.048 1.128.144l.528-2.976c-.408-.12-.816-.168-1.272-.168zm6.2533 13.032v-18.12l-3.072.336v17.784zm3.384-7.104 4.224-5.592h-3.24l-4.248 5.76 4.368 6.936h3.528zm28.18 7.104-1.296-16.584h-4.128l-2.784 11.616-2.952-11.616h-4.08l-1.32 16.584h3.072l.408-6.84c.144-2.376.192-4.656.096-6.888l3.216 11.928h3l3.024-11.904c-.048 1.752.072 4.32.216 6.768l.432 6.936zm8.306-13.056c-3.768 0-6 2.712-6 6.696 0 4.176 2.232 6.72 5.976 6.72s5.976-2.712 5.976-6.72c0-4.152-2.208-6.696-5.952-6.696zm0 2.328c1.776 0 2.712 1.344 2.712 4.368s-.936 4.392-2.736 4.392-2.736-1.344-2.736-4.392c0-3 .96-4.368 2.76-4.368zm19.511-7.056-3.072-.336v6.432c-.792-.792-1.848-1.368-3.144-1.368-3.216 0-5.16 2.808-5.16 6.72 0 4.032 1.656 6.696 4.824 6.696 1.632 0 2.856-.816 3.624-1.968l.216 1.608h2.712zm-5.688 15.816c-1.512 0-2.448-1.128-2.448-4.392 0-3.048 1.056-4.392 2.664-4.392 1.032 0 1.728.528 2.4 1.344v5.808c-.72 1.08-1.488 1.632-2.616 1.632zm19.557-4.68c0-4.008-2.04-6.408-5.592-6.408-3.6 0-5.64 2.928-5.64 6.792 0 4.008 2.112 6.624 6.048 6.624 1.92 0 3.456-.696 4.704-1.704l-1.272-1.752c-1.104.768-2.04 1.128-3.168 1.128-1.68 0-2.904-.84-3.12-3.432h7.968c.024-.336.072-.84.072-1.248zm-3.048-.744h-4.992c.168-2.52 1.08-3.48 2.52-3.48 1.728 0 2.472 1.248 2.472 3.336z" fill="#7b61ff"/></svg>

<svg width="1012" height="441" viewBox="0 0 1012 441" fill="none" xmlns="http://www.w3.org/2000/svg">
<rect width="1012" height="441" fill="white"/>
<rect y="188" width="1012" height="253" fill="#815CFF" fill-opacity="0.05"/>
<circle cx="306" cy="73" r="58" fill="white" stroke="#00A2FF" stroke-width="4"/>
<path d="M285.129 75.084V82.5H288.321V65.916H285.129V72.564H279.225V65.916H276.057V82.5H279.225V75.084H285.129ZM297.27 69.444C293.502 69.444 291.27 72.156 291.27 76.14C291.27 80.316 293.502 82.86 297.246 82.86C300.99 82.86 303.222 80.148 303.222 76.14C303.222 71.988 301.014 69.444 297.27 69.444ZM297.27 71.772C299.046 71.772 299.982 73.116 299.982 76.14C299.982 79.164 299.046 80.532 297.246 80.532C295.446 80.532 294.51 79.188 294.51 76.14C294.51 73.14 295.47 71.772 297.27 71.772ZM319.566 69.444C317.886 69.444 316.71 70.26 315.75 71.58C315.27 70.236 314.166 69.444 312.678 69.444C311.07 69.444 309.918 70.188 309.006 71.46L308.766 69.804H306.102V82.5H309.174V73.668C309.87 72.492 310.518 71.748 311.598 71.748C312.342 71.748 312.99 72.204 312.99 73.788V82.5H316.062V73.668C316.758 72.492 317.406 71.748 318.462 71.748C319.23 71.748 319.854 72.204 319.854 73.788V82.5H322.926V73.308C322.926 70.908 321.582 69.444 319.566 69.444ZM336.909 75.852C336.909 71.844 334.869 69.444 331.317 69.444C327.717 69.444 325.677 72.372 325.677 76.236C325.677 80.244 327.789 82.86 331.725 82.86C333.645 82.86 335.181 82.164 336.429 81.156L335.157 79.404C334.053 80.172 333.117 80.532 331.989 80.532C330.309 80.532 329.085 79.692 328.869 77.1H336.837C336.861 76.764 336.909 76.26 336.909 75.852ZM333.861 75.108H328.869C329.037 72.588 329.949 71.628 331.389 71.628C333.117 71.628 333.861 72.876 333.861 74.964V75.108Z" fill="#00A2FF"/>
<circle cx="506" cy="73" r="59" fill="white" stroke="black" stroke-width="2"/>
<path d="M490.981 82.5V65.916H488.101V73.692C488.101 76.044 488.389 78.444 488.533 79.356L482.749 65.916H478.741V82.5H481.621V75.732C481.621 72.66 481.357 70.548 481.189 69.084L486.877 82.5H490.981ZM505.186 75.852C505.186 71.844 503.146 69.444 499.594 69.444C495.994 69.444 493.954 72.372 493.954 76.236C493.954 80.244 496.066 82.86 500.002 82.86C501.922 82.86 503.458 82.164 504.706 81.156L503.434 79.404C502.33 80.172 501.394 80.532 500.266 80.532C498.586 80.532 497.362 79.692 497.146 77.1H505.114C505.138 76.764 505.186 76.26 505.186 75.852ZM502.138 75.108H497.146C497.314 72.588 498.226 71.628 499.666 71.628C501.394 71.628 502.138 72.876 502.138 74.964V75.108ZM520.756 82.5L523.516 69.804H520.564L518.668 80.244L516.652 69.804H513.508L511.3 80.244L509.524 69.804H506.452L509.26 82.5H513.028L514.996 72.54L516.916 82.5H520.756ZM529.645 69.444C526.693 69.444 524.749 71.028 524.749 73.14C524.749 75.012 525.901 76.26 528.517 76.98C530.893 77.652 531.397 77.988 531.397 79.092C531.397 79.98 530.509 80.58 529.117 80.58C527.845 80.58 526.669 80.076 525.709 79.308L524.149 81.06C525.325 82.116 527.029 82.86 529.213 82.86C532.117 82.86 534.565 81.468 534.565 78.828C534.565 76.572 533.101 75.516 530.509 74.82C528.349 74.22 527.845 73.836 527.845 72.996C527.845 72.228 528.541 71.724 529.837 71.724C530.893 71.724 531.901 72.084 532.957 72.804L534.157 70.956C532.957 70.02 531.469 69.444 529.645 69.444Z" fill="black"/>
<circle cx="706" cy="73" r="59" fill="white" stroke="black" stroke-width="2"/>
<path d="M676.992 65.916H672.096V82.5H675.264V76.716H677.208C680.952 76.716 683.712 75.012 683.712 71.196C683.712 67.62 681.168 65.916 676.992 65.916ZM676.968 74.34H675.264V68.244H676.968C679.128 68.244 680.4 69.108 680.4 71.196C680.4 73.62 679.08 74.34 676.968 74.34ZM692.444 69.468C690.956 69.468 689.732 70.476 689.132 72.3L688.844 69.804H686.18V82.5H689.252V75.732C689.732 73.596 690.524 72.468 692.06 72.468C692.492 72.468 692.804 72.516 693.188 72.612L693.716 69.636C693.308 69.516 692.9 69.468 692.444 69.468ZM700.575 69.444C696.807 69.444 694.575 72.156 694.575 76.14C694.575 80.316 696.807 82.86 700.551 82.86C704.295 82.86 706.527 80.148 706.527 76.14C706.527 71.988 704.319 69.444 700.575 69.444ZM700.575 71.772C702.351 71.772 703.287 73.116 703.287 76.14C703.287 79.164 702.351 80.532 700.551 80.532C698.751 80.532 697.815 79.188 697.815 76.14C697.815 73.14 698.775 71.772 700.575 71.772ZM714.663 64.38C711.207 64.38 709.767 66.132 709.767 68.46V69.804H707.799V72.012H709.767V82.5H712.839V72.012H716.847V82.5H719.919V69.804H712.839V68.508C712.839 67.308 713.295 66.732 714.951 66.732C715.935 66.732 716.847 66.972 717.615 67.332L718.551 65.292C717.519 64.788 716.271 64.38 714.663 64.38ZM726.562 79.404V64.38L723.49 64.716V79.62C723.49 81.732 724.57 82.86 726.466 82.86C727.258 82.86 728.026 82.692 728.65 82.428L728.002 80.268C727.786 80.34 727.522 80.388 727.282 80.388C726.778 80.388 726.562 80.1 726.562 79.404ZM740.869 75.852C740.869 71.844 738.829 69.444 735.277 69.444C731.677 69.444 729.637 72.372 729.637 76.236C729.637 80.244 731.749 82.86 735.685 82.86C737.605 82.86 739.141 82.164 740.389 81.156L739.117 79.404C738.013 80.172 737.077 80.532 735.949 80.532C734.269 80.532 733.045 79.692 732.829 77.1H740.797C740.821 76.764 740.869 76.26 740.869 75.852ZM737.821 75.108H732.829C732.997 72.588 733.909 71.628 735.349 71.628C737.077 71.628 737.821 72.876 737.821 74.964V75.108Z" fill="black"/>
<circle cx="306" cy="305" r="59" fill="white" stroke="black" stroke-width="2"/>
<path d="M285.129 307.084V314.5H288.321V297.916H285.129V304.564H279.225V297.916H276.057V314.5H279.225V307.084H285.129ZM297.27 301.444C293.502 301.444 291.27 304.156 291.27 308.14C291.27 312.316 293.502 314.86 297.246 314.86C300.99 314.86 303.222 312.148 303.222 308.14C303.222 303.988 301.014 301.444 297.27 301.444ZM297.27 303.772C299.046 303.772 299.982 305.116 299.982 308.14C299.982 311.164 299.046 312.532 297.246 312.532C295.446 312.532 294.51 311.188 294.51 308.14C294.51 305.14 295.47 303.772 297.27 303.772ZM319.566 301.444C317.886 301.444 316.71 302.26 315.75 303.58C315.27 302.236 314.166 301.444 312.678 301.444C311.07 301.444 309.918 302.188 309.006 303.46L308.766 301.804H306.102V314.5H309.174V305.668C309.87 304.492 310.518 303.748 311.598 303.748C312.342 303.748 312.99 304.204 312.99 305.788V314.5H316.062V305.668C316.758 304.492 317.406 303.748 318.462 303.748C319.23 303.748 319.854 304.204 319.854 305.788V314.5H322.926V305.308C322.926 302.908 321.582 301.444 319.566 301.444ZM336.909 307.852C336.909 303.844 334.869 301.444 331.317 301.444C327.717 301.444 325.677 304.372 325.677 308.236C325.677 312.244 327.789 314.86 331.725 314.86C333.645 314.86 335.181 314.164 336.429 313.156L335.157 311.404C334.053 312.172 333.117 312.532 331.989 312.532C330.309 312.532 329.085 311.692 328.869 309.1H336.837C336.861 308.764 336.909 308.26 336.909 307.852ZM333.861 307.108H328.869C329.037 304.588 329.949 303.628 331.389 303.628C333.117 303.628 333.861 304.876 333.861 306.964V307.108Z" fill="black"/>
<circle cx="506" cy="305" r="59" fill="white" stroke="black" stroke-width="2"/>
<path d="M490.981 314.5V297.916H488.101V305.692C488.101 308.044 488.389 310.444 488.533 311.356L482.749 297.916H478.741V314.5H481.621V307.732C481.621 304.66 481.357 302.548 481.189 301.084L486.877 314.5H490.981ZM505.186 307.852C505.186 303.844 503.146 301.444 499.594 301.444C495.994 301.444 493.954 304.372 493.954 308.236C493.954 312.244 496.066 314.86 500.002 314.86C501.922 314.86 503.458 314.164 504.706 313.156L503.434 311.404C502.33 312.172 501.394 312.532 500.266 312.532C498.586 312.532 497.362 311.692 497.146 309.1H505.114C505.138 308.764 505.186 308.26 505.186 307.852ZM502.138 307.108H497.146C497.314 304.588 498.226 303.628 499.666 303.628C501.394 303.628 502.138 304.876 502.138 306.964V307.108ZM520.756 314.5L523.516 301.804H520.564L518.668 312.244L516.652 301.804H513.508L511.3 312.244L509.524 301.804H506.452L509.26 314.5H513.028L514.996 304.54L516.916 314.5H520.756ZM529.645 301.444C526.693 301.444 524.749 303.028 524.749 305.14C524.749 307.012 525.901 308.26 528.517 308.98C530.893 309.652 531.397 309.988 531.397 311.092C531.397 311.98 530.509 312.58 529.117 312.58C527.845 312.58 526.669 312.076 525.709 311.308L524.149 313.06C525.325 314.116 527.029 314.86 529.213 314.86C532.117 314.86 534.565 313.468 534.565 310.828C534.565 308.572 533.101 307.516 530.509 306.82C528.349 306.22 527.845 305.836 527.845 304.996C527.845 304.228 528.541 303.724 529.837 303.724C530.893 303.724 531.901 304.084 532.957 304.804L534.157 302.956C532.957 302.02 531.469 301.444 529.645 301.444Z" fill="black"/>
<circle cx="706" cy="305" r="59" fill="white" stroke="black" stroke-width="2"/>
<path d="M676.992 297.916H672.096V314.5H675.264V308.716H677.208C680.952 308.716 683.712 307.012 683.712 303.196C683.712 299.62 681.168 297.916 676.992 297.916ZM676.968 306.34H675.264V300.244H676.968C679.128 300.244 680.4 301.108 680.4 303.196C680.4 305.62 679.08 306.34 676.968 306.34ZM692.444 301.468C690.956 301.468 689.732 302.476 689.132 304.3L688.844 301.804H686.18V314.5H689.252V307.732C689.732 305.596 690.524 304.468 692.06 304.468C692.492 304.468 692.804 304.516 693.188 304.612L693.716 301.636C693.308 301.516 692.9 301.468 692.444 301.468ZM700.575 301.444C696.807 301.444 694.575 304.156 694.575 308.14C694.575 312.316 696.807 314.86 700.551 314.86C704.295 314.86 706.527 312.148 706.527 308.14C706.527 303.988 704.319 301.444 700.575 301.444ZM700.575 303.772C702.351 303.772 703.287 305.116 703.287 308.14C703.287 311.164 702.351 312.532 700.551 312.532C698.751 312.532 697.815 311.188 697.815 308.14C697.815 305.14 698.775 303.772 700.575 303.772ZM714.663 296.38C711.207 296.38 709.767 298.132 709.767 300.46V301.804H707.799V304.012H709.767V314.5H712.839V304.012H716.847V314.5H719.919V301.804H712.839V300.508C712.839 299.308 713.295 298.732 714.951 298.732C715.935 298.732 716.847 298.972 717.615 299.332L718.551 297.292C717.519 296.788 716.271 296.38 714.663 296.38ZM726.562 311.404V296.38L723.49 296.716V311.62C723.49 313.732 724.57 314.86 726.466 314.86C727.258 314.86 728.026 314.692 728.65 314.428L728.002 312.268C727.786 312.34 727.522 312.388 727.282 312.388C726.778 312.388 726.562 312.1 726.562 311.404ZM740.869 307.852C740.869 303.844 738.829 301.444 735.277 301.444C731.677 301.444 729.637 304.372 729.637 308.236C729.637 312.244 731.749 314.86 735.685 314.86C737.605 314.86 739.141 314.164 740.389 313.156L739.117 311.404C738.013 312.172 737.077 312.532 735.949 312.532C734.269 312.532 733.045 311.692 732.829 309.1H740.797C740.821 308.764 740.869 308.26 740.869 307.852ZM737.821 307.108H732.829C732.997 304.588 733.909 303.628 735.349 303.628C737.077 303.628 737.821 304.876 737.821 306.964V307.108Z" fill="black"/>
<path d="M63.024 298.416H58.944V315H63.456C67.416 315 71.52 313.344 71.52 306.624C71.52 299.76 67.392 298.416 63.024 298.416ZM62.112 300.792H63.576C66.024 300.792 68.184 301.632 68.184 306.624C68.184 311.52 66.144 312.624 63.672 312.624H62.112V300.792ZM83.5601 311.64V306.312C83.5601 303.504 82.0721 301.944 78.6881 301.944C77.2481 301.944 75.6401 302.256 74.0801 302.856L74.8001 304.944C76.0721 304.512 77.2961 304.272 78.1601 304.272C79.7921 304.272 80.5361 304.824 80.5361 306.48V307.2H78.9521C75.2561 307.2 73.1681 308.688 73.1681 311.448C73.1681 313.752 74.7281 315.36 77.2721 315.36C78.7841 315.36 80.1761 314.808 81.0641 313.464C81.5681 314.688 82.4801 315.192 83.8721 315.312L84.5201 313.272C83.8961 313.032 83.5601 312.672 83.5601 311.64ZM78.0881 313.128C76.9121 313.128 76.2881 312.432 76.2881 311.208C76.2881 309.72 77.2721 309 79.2641 309H80.5361V311.568C79.9601 312.576 79.1681 313.128 78.0881 313.128ZM93.5417 301.968C92.0537 301.968 90.8297 302.976 90.2297 304.8L89.9417 302.304H87.2777V315H90.3497V308.232C90.8297 306.096 91.6217 304.968 93.1577 304.968C93.5897 304.968 93.9017 305.016 94.2857 305.112L94.8137 302.136C94.4057 302.016 93.9977 301.968 93.5417 301.968ZM99.795 315V296.88L96.723 297.216V315H99.795ZM103.179 307.896L107.403 302.304H104.163L99.915 308.064L104.283 315H107.811L103.179 307.896ZM131.359 315L130.063 298.416H125.935L123.151 310.032L120.199 298.416H116.119L114.799 315H117.871L118.279 308.16C118.423 305.784 118.471 303.504 118.375 301.272L121.591 313.2H124.591L127.615 301.296C127.567 303.048 127.687 305.616 127.831 308.064L128.263 315H131.359ZM139.665 301.944C135.897 301.944 133.665 304.656 133.665 308.64C133.665 312.816 135.897 315.36 139.641 315.36C143.385 315.36 145.617 312.648 145.617 308.64C145.617 304.488 143.409 301.944 139.665 301.944ZM139.665 304.272C141.441 304.272 142.377 305.616 142.377 308.64C142.377 311.664 141.441 313.032 139.641 313.032C137.841 313.032 136.905 311.688 136.905 308.64C136.905 305.64 137.865 304.272 139.665 304.272ZM159.176 297.216L156.104 296.88V303.312C155.312 302.52 154.256 301.944 152.96 301.944C149.744 301.944 147.8 304.752 147.8 308.664C147.8 312.696 149.456 315.36 152.624 315.36C154.256 315.36 155.48 314.544 156.248 313.392L156.464 315H159.176V297.216ZM153.488 313.032C151.976 313.032 151.04 311.904 151.04 308.64C151.04 305.592 152.096 304.248 153.704 304.248C154.736 304.248 155.432 304.776 156.104 305.592V311.4C155.384 312.48 154.616 313.032 153.488 313.032ZM173.045 308.352C173.045 304.344 171.005 301.944 167.453 301.944C163.853 301.944 161.813 304.872 161.813 308.736C161.813 312.744 163.925 315.36 167.861 315.36C169.781 315.36 171.317 314.664 172.565 313.656L171.293 311.904C170.189 312.672 169.253 313.032 168.125 313.032C166.445 313.032 165.221 312.192 165.005 309.6H172.973C172.997 309.264 173.045 308.76 173.045 308.352ZM169.997 307.608H165.005C165.173 305.088 166.085 304.128 167.525 304.128C169.253 304.128 169.997 305.376 169.997 307.464V307.608Z" fill="#7B61FF"/>
</svg>
